static/img/kroki/1e6948dce86efae95f3f425165c52846.svg

<?xml version="1.0" encoding="us-ascii" standalone="no"?><svg xmlns="http://www.w3.org/2000/svg" xmlns:xlink="http://www.w3.org/1999/xlink" contentStyleType="text/css" height="152px" preserveAspectRatio="none" style="width:275px;height:152px;" version="1.1" viewBox="0 0 275 152" width="275px" zoomAndPan="magnify"><defs/><g><!--class gcp_vertex_ai_custom_job--><g id="elem_gcp_vertex_ai_custom_job"><rect codeLine="23" fill="#3D176E" height="39.7891" id="gcp_vertex_ai_custom_job" rx="2.5" ry="2.5" style="stroke:#000D19;stroke-width:0.5;" width="261" x="7" y="106.79"/><ellipse cx="22" cy="126.6845" fill="#ADD1B2" rx="11" ry="11" style="stroke:#181818;stroke-width:1.0;"/><path d="M24.9688,132.3252 Q24.3906,132.622 23.75,132.7627 Q23.1094,132.9189 22.4063,132.9189 Q19.9063,132.9189 18.5781,131.2783 Q17.2656,129.622 17.2656,126.497 Q17.2656,123.372 18.5781,121.7158 Q19.9063,120.0595 22.4063,120.0595 Q23.1094,120.0595 23.75,120.2158 Q24.4063,120.372 24.9688,120.6689 L24.9688,123.3877 Q24.3438,122.8095 23.75,122.5439 Q23.1563,122.2627 22.5313,122.2627 Q21.1875,122.2627 20.5,123.3408 Q19.8125,124.4033 19.8125,126.497 Q19.8125,128.5908 20.5,129.6689 Q21.1875,130.7314 22.5313,130.7314 Q23.1563,130.7314 23.75,130.4658 Q24.3438,130.1845 24.9688,129.6064 L24.9688,132.3252 Z " fill="#000000"/><text fill="#D9B8FF" font-family="Helvetica" font-size="17" lengthAdjust="spacing" textLength="219" x="41" y="132.5698">gcp_vertex_ai_custom_job</text></g><!--class gcp_vertex_ai_model--><g id="elem_gcp_vertex_ai_model"><rect codeLine="26" fill="#3D176E" height="39.7891" id="gcp_vertex_ai_model" rx="2.5" ry="2.5" style="stroke:#000D19;stroke-width:0.5;" width="218" x="28.5" y="7"/><ellipse cx="43.5" cy="26.8945" fill="#ADD1B2" rx="11" ry="11" style="stroke:#181818;stroke-width:1.0;"/><path d="M46.4688,32.5352 Q45.8906,32.832 45.25,32.9727 Q44.6094,33.1289 43.9063,33.1289 Q41.4063,33.1289 40.0781,31.4883 Q38.7656,29.832 38.7656,26.707 Q38.7656,23.582 40.0781,21.9258 Q41.4063,20.2695 43.9063,20.2695 Q44.6094,20.2695 45.25,20.4258 Q45.9063,20.582 46.4688,20.8789 L46.4688,23.5977 Q45.8438,23.0195 45.25,22.7539 Q44.6563,22.4727 44.0313,22.4727 Q42.6875,22.4727 42,23.5508 Q41.3125,24.6133 41.3125,26.707 Q41.3125,28.8008 42,29.8789 Q42.6875,30.9414 44.0313,30.9414 Q44.6563,30.9414 45.25,30.6758 Q45.8438,30.3945 46.4688,29.8164 L46.4688,32.5352 Z " fill="#000000"/><text fill="#D9B8FF" font-family="Helvetica" font-size="17" lengthAdjust="spacing" textLength="176" x="62.5" y="32.7798">gcp_vertex_ai_model</text></g><!--link gcp_vertex_ai_model to gcp_vertex_ai_custom_job--><g id="link_gcp_vertex_ai_model_gcp_vertex_ai_custom_job"><path codeLine="29" d="M137.5,47.22 C137.5,64.36 137.5,83.27 137.5,100.41 " fill="none" id="gcp_vertex_ai_model-to-gcp_vertex_ai_custom_job" style="stroke:#1A83AF;stroke-width:2.0;"/><polygon fill="#1A83AF" points="137.5,106.41,141.5,97.41,137.5,101.41,133.5,97.41,137.5,106.41" style="stroke:#1A83AF;stroke-width:2.0;"/></g><!--SRC=[XT1HIyCm40VmztwAG9y7hKExlGYrCFHbYFDDfAJDPOrjadAvRKxnk-kiIcoxxJN_7tV_IwK4CD0jxPa6NG2wmDNAj1ovPYcYtMMsiSX2ARcS9lrmOGsT1KkkWTr2imLI9U-BnqgLjG7ds8KNtV2oNgFT6D6D9-J6VKLWo5DPmvrBYL0L6mAlZ9WNCodxiZyqd8eukO81ioW0VqWKHIAUzydPLIVl_XChzGOizZzjQGa6DGShljN9bWVXbHmS-fiVxNZFXL1cpIwzjuUk4nh0V- -hYWkxEsZ96-UlSGG8blOjP8EhO3uJCXd5TyTmK1w-ZgtBDjy24hpcNENbnf7L-Oijs7iGV8mQRGKqNJmMJ9x2E9rDqyNpvFhezE0J]--></g></svg>

<svg xmlns="http://www.w3.org/2000/svg" width="275" height="152" viewBox="0 0 275 152"><rect width="261" height="39.789" x="7" y="106.79" fill="#3D176E" rx="2.5" ry="2.5" style="stroke:#000d19;stroke-width:.5"/><circle cx="22" cy="126.684" r="11" fill="#ADD1B2" style="stroke:#181818;stroke-width:1"/><path d="M24.969 132.325q-.578.297-1.219.438-.64.156-1.344.156-2.5 0-3.828-1.64-1.312-1.657-1.312-4.782t1.312-4.781q1.328-1.656 3.828-1.656.703 0 1.344.156.656.156 1.219.453v2.719q-.625-.579-1.219-.844-.594-.281-1.219-.281-1.343 0-2.031 1.078-.687 1.062-.687 3.156t.687 3.172q.688 1.062 2.031 1.062.625 0 1.219-.265.594-.281 1.219-.86z"/><text x="41" y="132.57" fill="#D9B8FF" font-family="Helvetica" font-size="17" textLength="219">gcp_vertex_ai_custom_job</text><rect width="218" height="39.789" x="28.5" y="7" fill="#3D176E" rx="2.5" ry="2.5" style="stroke:#000d19;stroke-width:.5"/><circle cx="43.5" cy="26.895" r="11" fill="#ADD1B2" style="stroke:#181818;stroke-width:1"/><path d="M46.469 32.535q-.578.297-1.219.438-.64.156-1.344.156-2.5 0-3.828-1.64-1.312-1.657-1.312-4.782t1.312-4.781q1.328-1.656 3.828-1.656.703 0 1.344.156.656.156 1.219.453v2.719q-.625-.578-1.219-.844-.594-.281-1.219-.281-1.343 0-2.031 1.078-.687 1.062-.687 3.156T42 29.879q.688 1.062 2.031 1.062.625 0 1.219-.265.594-.281 1.219-.86z"/><text x="62.5" y="32.78" fill="#D9B8FF" font-family="Helvetica" font-size="17" textLength="176">gcp_vertex_ai_model</text><path fill="none" d="M137.5 47.22v53.19" style="stroke:#1a83af;stroke-width:2"/><path fill="#1A83AF" d="m137.5 106.41 4-9-4 4-4-4z" style="stroke:#1a83af;stroke-width:2"/></svg>
